src/assets/img/globalping/github.svg

<svg width="64" height="64" viewBox="0 0 64 64" fill="none" xmlns="http://www.w3.org/2000/svg">
<path fill-rule="evenodd" clip-rule="evenodd" d="M31.9977 6.3999C17.863 6.3999 6.40002 18.1514 6.40002 32.6486C6.40002 44.2454 13.7345 54.0826 23.9073 57.5534C25.1881 57.7951 25.6548 56.9846 25.6548 56.2885C25.6548 55.6665 25.6328 54.0149 25.6203 51.8251C18.4995 53.4106 16.9971 48.3059 16.9971 48.3059C15.8326 45.2734 14.1541 44.4661 14.1541 44.4661C11.8298 42.8387 14.3301 42.8709 14.3301 42.8709C16.8996 43.0562 18.2512 45.5763 18.2512 45.5763C20.5347 49.5869 24.2436 48.4284 25.702 47.7565C25.9346 46.0613 26.5962 44.9044 27.327 44.2486C21.6426 43.5863 15.666 41.3337 15.666 31.2757C15.666 28.4108 16.6639 26.0663 18.3015 24.2326C18.0375 23.5687 17.159 20.8987 18.5529 17.2861C18.5529 17.2861 20.7013 16.5803 25.592 19.977C27.6334 19.3937 29.8242 19.1037 32.0008 19.0924C34.1759 19.1037 36.365 19.3937 38.4096 19.977C43.2972 16.5803 45.4424 17.2861 45.4424 17.2861C46.8395 20.8987 45.961 23.5687 45.6986 24.2326C47.3393 26.0663 48.3294 28.4108 48.3294 31.2757C48.3294 41.3595 42.3433 43.5783 36.6416 44.2276C37.5594 45.0381 38.3782 46.6398 38.3782 49.089C38.3782 52.5969 38.3468 55.428 38.3468 56.2885C38.3468 56.991 38.8088 57.808 40.1069 57.5518C50.2718 54.0729 57.6 44.2421 57.6 32.6486C57.6 18.1514 46.137 6.3999 31.9977 6.3999Z" fill="#17233A"/>
</svg>

<svg xmlns="http://www.w3.org/2000/svg" width="64" height="64" fill="none">
  <path fill="#17233A" fill-rule="evenodd" d="M31.998 6.4C17.863 6.4 6.4 18.15 6.4 32.649c0 11.596 7.335 21.434 17.507 24.904 1.281.242 1.748-.568 1.748-1.264 0-.623-.022-2.274-.035-4.464-7.12 1.586-8.623-3.52-8.623-3.52-1.164-3.032-2.843-3.839-2.843-3.839-2.324-1.627.176-1.595.176-1.595 2.57.185 3.921 2.705 3.921 2.705 2.284 4.01 5.993 2.852 7.451 2.18.233-1.695.894-2.852 1.625-3.507-5.684-.663-11.661-2.915-11.661-12.973 0-2.865.998-5.21 2.636-7.043-.264-.664-1.143-3.334.25-6.947 0 0 2.15-.706 7.04 2.691 2.041-.583 4.232-.873 6.409-.885 2.175.012 4.364.302 6.409.885 4.887-3.397 7.032-2.69 7.032-2.69 1.398 3.612.519 6.282.257 6.946 1.64 1.833 2.63 4.178 2.63 7.043 0 10.083-5.986 12.302-11.687 12.952.917.81 1.736 2.412 1.736 4.861 0 3.508-.031 6.339-.031 7.2 0 .702.462 1.519 1.76 1.263C50.272 54.072 57.6 44.242 57.6 32.649c0-14.498-11.463-26.25-25.602-26.25Z" clip-rule="evenodd"/>
</svg>
